modules/entypo/icons/plus-circled.svg

<svg height="1000px" width="840px" xmlns="http://www.w3.org/2000/svg">
  <g>
    <path d="M420 80c116 0 215 41 297 123c82 82 123 181 123 297c0 116 -41 215 -123 297c-82 82 -181 123 -297 123c-116 0 -215 -41 -297 -123c-82 -82 -123 -181 -123 -297c0 -116 41 -215 123 -297c82 -82 181 -123 297 -123c0 0 0 0 0 0m52 470c0 0 200 0 200 0c0 0 0 -102 0 -102c0 0 -200 0 -200 0c0 0 0 -202 0 -202c0 0 -102 0 -102 0c0 0 0 202 0 202c0 0 -202 0 -202 0c0 0 0 102 0 102c0 0 202 0 202 0c0 0 0 202 0 202c0 0 102 0 102 0c0 0 0 -202 0 -202c0 0 0 0 0 0" />
  </g>
</svg>

<svg height="1000" width="840" xmlns="http://www.w3.org/2000/svg"><path d="M420 80c116 0 215 41 297 123s123 181 123 297-41 215-123 297-181 123-297 123-215-41-297-123S0 616 0 500s41-215 123-297S304 80 420 80m52 470h200V448H472V246H370v202H168v102h202v202h102V550"/></svg>
